X:4
T: Seige of Ennis Medley #2
T:Andy Irvings Polka % 1st half
T:Banks of Inverness Reel % Key of D
T:Seige of Ennis % 2nd half
R:polka
M:4/4
L:1/8
Q:1/4=200
K:G
z7 |
|: "G"D>EDB, DEG>A | Bd AB/A/ "C"GEcE | "G"D>EDB, DEG>A |\
[1 "D"Bd AB/A/ "G"G2 GE :|2 "D"Bd AB/A/ "G"G2 GA |
|: "G"Bdd>B "C"cee>c | "G"Bd AB/A/ "C"GEcE | "G"Bdd>B "C"cee>f |\
[1 "Em"ge"D"fd "C"e2 eA :|2 "Em"ge"D"fd "C"e2 ef |
|: "Em"ge"D"fd "C"ed"G"B>A | "G"Bd AB/A/ "C"GEcE | "G"D>EDB, DEG>A |\
[1 "D"Bd AB/A/ "G"G2 Gf :|2 "D"Bd AB/A/ "G"G2 GE |
|: "G"D>EDB, DEG>A | Bd AB/A/ "C"GEcE | "G"D>EDB, DEG>A |\
[1 "D"Bd AB/A/ "G"G2 GE :|2 "D"Bd AB/A/ "G"G2 GA |
|: "G"Bdd>B "C"cee>c | "G"Bd AB/A/ "C"GEcE | "G"Bdd>B "C"cee>f |\
[1 "Em"ge"D"fd "C"e2 eA :|2 "Em"ge"D"fd "C"e2 ef |
|: "Em"ge"D"fd "C"ed"G"B>A | "G"Bd AB/A/ "C"GEcE | "G"D>EDB, DEG>A |\
[1 "D"Bd AB/A/ "G"G2 Gf :|2 "D"Bd AB/A/ "G"G2 GA |
|: "G"BdBdBddB/d/ | {ef}edBA "C"BAAG | "G"BdBdBddB/d/ |"D"{ef}ed{Bd}BA "G"AGGG/A/ |
"G"BddB/d/ "C"edd>B | "G"dBAG/A/ "C"BA ~A2 | "G"Bdd>d eddB/d/ |\
[1 edBA "G"BGGA :|2 edBA "G"BGGE |
|: "G"D>EDB, DEG>A | BdBA "C"GEE>D | "G"D>EDB, DEG>A |\
[1 Bd"D"BA "G"G2 GE :|2 Bd"D"BA "G"G2 G z |]
